X: 2361
T: Steer the Gill.  a Reel.
%R: reel
B: Niel Gow & Sons "Complete Repository" v.2 p.36 #1
Z: 2021 John Chambers <jc:trillian.mit.edu>
M: C|
L: 1/16
K: D
% - - - - - - - - - -
V: 1 staves=2
|:\
d4- d3e (dcBA) (GFED) | d4 d2f2 (efg2) (fga2) |\
d4 d2e2 (dcBA) (GFED) | E2=C2-C2E2 c4 .c3e :|
|:\
d2D2-D2B2 A2F2(TE2D2) | d2D2-D2f2 (efg2) (fga2) |\
d2D2D2B2 A2F2(TE2D2) |E2=C2C2E2 c4- c3e :|
% - - - - - - - - - -
V: 2 clef=bass middle=d
|: d4d4 d4d4 | d4d4 A4d4 | d4d4 d4d4 | =c4c4 c4c4 :|
|: d4d4 d4A4 | d4d4 c4d4 | d4d4 d4A4 | =c4c4 c4c4 :|
